X:1
T:James Gibb editions
T:Hear the voice and prayer - Tallis
T:#
%%score [ 1 2 3 4 ]
L:1/8
Q:1/4=200
M:none
K:F
V:1 treble nm="Alto" snm="A"
V:2 treble-8 nm="Tenor I" snm="T I"
V:3 treble-8 nm="Tenor II" snm="T II"
V:4 bass nm="Bass" snm="B"
V:1
"^Hear the voice and prayer""^Thomas Tallis\n(1505-85)" z16 | z8 D8- | D4 D4 C4 C4 | F6 E2 D4 F4 | %4
w: |Hear|* the voice and|pray- er of thy|
 E8 A,4 (D4- | D2 C2 =B,2) A,2 B,8 | A,8 z8 | z16 | z4 C4 D4 E4- | E4 F4 E4 (D4- | D2 E2) ^C4 D8- | %11
w: ser- vants, of|* * * thy ser-|vants,||that they make|* be- fore thee|* * this day,|
 D8 z8 | z16 | A,4 A,4 D4 D2 D2 | G6 G2 F4 F2 F2 | E4 (F6 G2) E4 | F4 C2 C2 D4 D2 D2 | %17
w: ||that thine eyes may be|o- pen to- ward this|house night * and|day, ev- er to- ward this|
 C4 E2 E2 F4 F2 F2 | E8 z4 G4 | G4 G2 F2 E6 E2 | (F2 C2) (C6 D2) =B,4 | C4 F4 E4 E2 E2 | %22
w: place, ev- er to- ward this|place, of|which thou hast said, My|name * shall * be|there, my name shall be|
 D4 D4 D4 A,4- | A,4 A,4 A,8- | A,8 z8 | z4 D4 F6 F2 | E4 A,4 (D2 F2) E2 D2 | ^C8 z4 =C4 | %28
w: there, my name shall|* be there.||And when thou|hear'st, have mer- * cy on|them, and|
 G6 G2 F4 D4 | (F4 E6 D2 F4- | F2 E2 D6) E2 ^C4 | D4 B,4 A,6 =B,2 | %32
w: when thou hear'st, have|mer\- * * *|* * * cy on|them, and when thou|
[Q:1/4=197] C4[Q:1/4=192] C4[Q:1/4=188] (C2[Q:1/4=185] !courtesy!_B,2)[Q:1/4=183] A,2[Q:1/4=180] G,2 | %33
w: hear'st, have mer\- * cy u-|
[Q:1/4=174] A,8[Q:1/4=170] A,16 |] %34
w: pon them.|
V:2
 z16 | z16 | z16 | z16 | z8 z4 A4- | A4 A4 G4 G4 | c6 =B2 A4 c4 | =B8 A8 | z4 A4 =B4 c4- | %9
w: ||||Hear|* the voice and|pray- er of thy|ser- vants,|that they make|
 c4 c4 c4 A4 | A8 A8 | A4 A4 d4 d2 d2 | f6 f2 e4 e2 e2 | d4 (f6 e2 d4- | d4) ^c4 d4 =c4 | %15
w: * be- fore thee|this day,|that thine eyes may be|o- pen to- ward this|house night * *|* and day, this|
 c4 =B4 (c6 _B2) | A4 A2 A2 A2 A2 G4 | A4 c2 c2 c2 c2 =B4 | c16 | z16 | z4 g4 g4 g2 f2 | %21
w: house night and *|day, ev- er to- ward this|place, ev- er to- ward this|place,||of which thou hast|
 e4 d4 d4 ^c2 c2 | d4 g4 (f4 e2 d2) | (^c2 d2) (=B2 c2) d4 A4 | d6 d2 c4 F4 | B6 B2 (A6 B2) | %26
w: said, My name shall be|there, my name * *|shall * be * there. And|when thou hear'st, have|mer- cy on *|
 c8 (F4 G4) | A4 E4 A8 | (G4 E4) D8 | z8 z8 | z4 d4 g6 g2 | f4 d4 f8 | (e4 f4) (e2 d2 d4- | %33
w: them, on *|them, and when|thou * hear'st,||and when thou|hear'st, have mer-|cy * on * *|
 d4 ^c4) d16 |] %34
w: * * them.|
V:3
 G12 G4 | F4 F4 B6 A2 | G4 B4 A8 | (D6 E2 F2 G2) A4- | A2 G2 E4 D8 | z8 z4 E4- | E4 E8 (A4- | %7
w: Hear the|voice and pray- er|of thy ser-|vants, * * * of|* thy ser- vants,|that|* they make|
 A2 ^G^F G4 A4 E4- | E4) E4 G8- | G4 A4 (G4 F4 | E8) ^F8 | z8 D4 D4 | A4 A2 A2 c6 c2 | %13
w: |* be- fore|* thee this *|* day,|that thine|eyes may be o- pen|
 F2 F2 A4 A4 A4- | A4 G4 A8 | (G4 F4) G8 | F4 F2 F2 F4 D2 D2 | E4 A2 A2 A4 F2 F2 | G4 G4 G4 G2 F2 | %19
w: to- ward this house night|* and day,|night * and|day, ev- er to- ward this|place, ev- er to- ward this|place, of which thou hast|
 E4 A4 G8 | F4 E4 D8 | z4 A4 A6 G2 | F4 B4 A4 (G2 F2) | (E2 D2 E4) D8 | z4 D4 A6 A2 | G4 G4 F6 F2 | %26
w: said, My name|shall be there.|And when thou|hear'st, have mer- cy *|on * * them,|and when thou|hear'st, have mer- cy|
 (G4 F4 D8) | E16 | z4 G4 d6 d2 | c4 c4 B8 | A4 (A8 G4) | A4 G4 F6 F2 | G4 A4 (G2 F2) E2 D2 | %33
w: on * *|them,|and when thou|hear'st, have mer-|cy on *|them, and when thou|hear'st, have mer\- * cy u-|
 E8 D16 |] %34
w: pon them.|
V:4
 z16 | z16 | z16 | z4 D,8 D,4 | C,4 C,4 F,6 E,2 | D,4 F,4 E,8 | A,,8 C,4 A,,4 | E,8 A,,8 | %8
w: |||Hear the|voice and pray- er|of thy ser-|vants, of thy|ser- vants|
 z4 A,,4 G,,4 C,4- | C,4 F,,4 C,4 D,4 | A,,8 D,8- | D,8 z8 | z8 A,,4 A,,4 | D,4 D,2 D,2 F,6 F,2 | %14
w: that they make|* be- fore thee|this day,||that thine|eyes may be o- pen|
 E,4 E,2 E,2 D,4 F,4 | (C,4 D,4) C,8 | z4 F,,2 F,,2 B,,4 B,,2 B,,2 | A,,4 A,,2 A,,2 D,4 D,2 D,2 | %18
w: to- ward this house night|and * day,|ev- er to- ward this|place, ev- er to- ward this|
 C,16 | z4 C,4 C,4 C,2 B,,2 | A,,4 C,4 G,,4 G,,2 G,,2 | C,4 D,4 A,,4 A,,2 A,,2 | D,4 G,,4 D,8 | %23
w: place,|of which thou hast|said, My name shall be|there, my name shall be|there, my name|
 A,,4 A,,4 D,8- | D,8 z8 | z4 G,,4 D,6 D,2 | C,4 F,,4 !courtesy!_B,,4 B,,2 B,,2 | A,,16 | %28
w: shall be there.||and when thou|hear'st have mer- cy on|them,|
 z8 z4 D,4 | A,6 A,2 G,4 D,4 | F,4 F,4 E,8 | D,6 G,,2 D,6 D,2 | C,4 A,,4 D,4 (C,2 B,,2 | %33
w: and|when thou hear'st, have|mer- cy on|them, and when thou|hear'st, have mer- cy *|
 A,,2) G,,2 A,,4 D,16 |] %34
w: * u- pon them.|

